X:1
T:Multnomah March
C: M-16 \251Bob McQuillen
K:A
M:C|
L:1/4
AB|:"A"c>BAE|"D"FA2B|"A"c>BAB|"C#m"ce2c/e/|"D"f>efa|
"A"f/e/-e c>[1B|"F#m"A>cBA|"E"F/E/-EA>B:|[2A/|"E"B/A/-AA>A|"A"A2cd|]
|:"A"e>fec|ea2f|e>cAB|"F#m"cf2c/B/|"D"AFF>E|
FAA>[1F|"A"E>FAc|"E"cBcd:|[2f/|"E"e/c/-cB>A|"A"A2|]
%%vskip 1cm
